icons/animal_donkey.svg

<svg width="48" height="48" viewBox="0 0 48 48" fill="none" xmlns="http://www.w3.org/2000/svg">
<path d="M33.1901 39.1667C33.1881 39.1734 33.1833 39.1785 33.1759 39.182M33.1901 39.1667L33.1759 39.182M33.1901 39.1667C33.6999 37.4297 36.6005 38 35.0343 33.9749C35.1472 32.8349 33.1901 33 32.6003 31.3099C32.0105 29.6197 29.055 32.667 27.8516 33C25.5 34.5 23.1579 34.7333 20.9714 32.3099C19.7476 33.3435 20.2919 35.2135 20.3999 38C20.4658 39.7022 19.9714 41 19.9714 41H16.7997H15C15 38.5 16.7997 39.1667 16.7997 39.1667L17.7997 36.4597L16.7997 29.7527L14 21.9167L11.6189 25.2214C11.2813 25.5918 10.8257 25.8017 10.3475 25.8017H8.60372C7.92307 25.8017 7.29867 25.3757 6.9949 24.709L6.19049 22.9434C5.88673 22.2767 5.94861 21.4741 6.35925 20.8753L10.5557 14.7451C10.6513 14.6031 10.7919 14.5167 10.9157 14.4118C10.6907 14.2759 10.4657 14.1525 10.28 13.9488C9.35751 12.9363 9.245 8.36826 9.93691 7.22001C10.0944 6.96073 10.4319 6.92369 10.6344 7.14593C13.083 9.8268 13 14.4118 15.8322 14.8624L20.3999 19.8752H33.6529C36.5105 19.8752 39.16 21.4309 40.7463 24.0423L41.8489 25.8573C42.1245 26.3141 42.012 26.9253 41.6014 27.2339C40.932 27.4422 39.9826 28.0323 39.4975 27.2284C38.2712 25.2097 37.5118 24.7029 36.6005 23.9498L38.8563 33.9749L36.6005 41H33.6003H31.5C31.5 38.6051 33.0076 39.2639 33.1759 39.182" stroke="black" stroke-width="2" stroke-linecap="round" stroke-linejoin="round"/>
</svg>

<svg
  xmlns="http://www.w3.org/2000/svg"
  width="24"
  height="24"
  viewBox="0 0 24 24"
  fill="none"
  stroke="currentColor"
  stroke-width="2"
  stroke-linecap="round"
  stroke-linejoin="round"
>
  <path d="M33.19 39.167a.03.03 0 0 1-.014.015m.014-.015-.014.015m.014-.015c.51-1.737 3.41-1.167 1.844-5.192.113-1.14-1.844-.975-2.434-2.665s-3.545 1.357-4.748 1.69c-2.352 1.5-4.694 1.733-6.88-.69-1.224 1.033-.68 2.904-.572 5.69.066 1.702-.429 3-.429 3H15c0-2.5 1.8-1.833 1.8-1.833l1-2.707-1-6.707-2.8-7.836-2.381 3.304a1.72 1.72 0 0 1-1.271.58H8.604c-.68 0-1.305-.425-1.61-1.092l-.804-1.766a2.13 2.13 0 0 1 .17-2.068l4.196-6.13c.095-.142.236-.228.36-.333-.225-.136-.45-.26-.636-.463-.922-1.013-1.035-5.58-.343-6.729a.43.43 0 0 1 .697-.074c2.449 2.68 2.366 7.266 5.198 7.716l4.568 5.013h13.253c2.858 0 5.507 1.556 7.093 4.167l1.103 1.815c.276.457.163 1.068-.248 1.377-.669.208-1.618.798-2.103-.006-1.227-2.018-1.986-2.525-2.898-3.278l2.256 10.025L36.6 41h-5.1c0-2.395 1.508-1.736 1.676-1.818" />
</svg>
